!!!COM: Haydn, Franz Joseph
!!!OTL: String Quartet in G Major
!!!OPS: Opus 54
!!!ONM: No. 1
!!!OMD: Vivace assai
!!!OMV: 1
!!!SCT: H III:58
!!!SCA: Thematisch-bibliographisches Werkevererzeichnis (A. van Hoboken)
!!!YOR: Trautwein Edition
!!!ENC: Frances Bennion
!!!CDT: 1732/3/31/-1809/5/31/
!!!CNT: Oesterreich
!!!YEC: Copyright (c) 1994, 2000 Center for Computer Assisted Research in the Humanities
!!!YEM: Rights to all derivative editions reserved.
!!!YEM: Refer to licensing agreement for further details.
!!!YEN: United States of America
**kern	**kern	**kern	**kern
*k[f#]	*k[f#]	*k[f#]	*k[f#]
*G:	*G:	*G:	*G:
*clefF4	*clefC3	*clefG	*clefG
*M4/4	*M4/4	*M4/4	*M4/4
8G	8B	8b 8d	2.gg
8G	8B	8b 8d	.
8G	8B	8b 8d	.
8G	8B	8b 8d	.
8G	8B	8b 8d	.
8G	8B	8b 8d	.
8G	8B	8b 8d	16ff#
.	.	.	16gg
8G	8B	8b 8d	16bb
.	.	.	16gg
=2	=2	=2	=2
8G	8B	8b 8d	8dd
8G	8B	8d 8b	8dd
8G	8B	8d 8b	8dd
8G	8B	8d 8b	8dd
8G	8B	8b 8d	8dd
8G	8B	8b 8d	8dd
8G	8B	8b 8d	8dd
8G	8B	8b 8d	8dd
=3	=3	=3	=3
8F#	1A	1d 1cc	[2ddd
8F#	.	.	.
8F#	.	.	.
8F#	.	.	.
8F#	.	.	16ddd]
.	.	.	16ccc#
8F#	.	.	16ddd
.	.	.	16ccc#
8F#	.	.	16ddd
.	.	.	16bb
8F#	.	.	16ccc
.	.	.	16aa
=4	=4	=4	=4
4G	8B	4d 4b	4gg
.	8g	.	.
8r	8g	2.r	8r
8B	8g	.	8g
8c	8g	.	8a-
8c#	8g	.	8a
8d	8g	.	8b-
8d#	8g	.	8b
=5	=5	=5	=5
8e	8g	2r	16cc
.	.	.	16dd
8e	8g	.	16cc
.	.	.	16b
8e	8g	.	16cc
.	.	.	16ee
8e	8g	.	16dd
.	.	.	16cc
8d	8g	8r	4b
8d	8g	16ff#	.
.	.	16gg	.
8d	8g	16ff#	4r
.	.	16gg	.
8d	8g	16ff#	.
.	.	16gg	.
=6	=6	=6	=6
8c	8g	2r	16a
.	.	.	16g#
8c	8g	.	16a
.	.	.	16g#
8c	8g	.	16a
.	.	.	16cc
8c	8g	.	16b
.	.	.	16a
8B	8g	8r	4g
8B	8g	16c#	.
.	.	16d	.
8B	8g	16c#	4r
.	.	16d	.
8B	8g	16c#	.
.	.	16d	.
=7	=7	=7	=7
8F#	[1d	1c	[2a
8F#	.	.	.
8F#	.	.	.
8F#	.	.	.
8F#	.	.	16a]
.	.	.	16b-
8F#	.	.	16b
.	.	.	16cc
8F#	.	.	16cc#
.	.	.	16dd
8F#	.	.	16ee
.	.	.	16dd
=8	=8	=8	=8
8G	1d]	2B	16cc
.	.	.	16b
8G	.	.	16a
.	.	.	16g
8G	.	.	16f#
.	.	.	16g
8G	.	.	16a
.	.	.	16g
8F#	.	2c	16a
.	.	.	16b-
8F#	.	.	16b
.	.	.	16cc
8F#	.	.	16cc#
.	.	.	16dd
8F#	.	.	16ee
.	.	.	16dd
=9	=9	=9	=9
8G	[1d	2B	16cc
.	.	.	16b
8G	.	.	16a
.	.	.	16g
8G	.	.	16f#
.	.	.	16g
8G	.	.	16a
.	.	.	16g
8F#	.	2c	16a
.	.	.	16b-
8F#	.	.	16b
.	.	.	16cc
8F#	.	.	16cc#
.	.	.	16dd
8F#	.	.	16ee
.	.	.	16dd
=10	=10	=10	=10
8G	1d]	2B	16cc
.	.	.	16b
8G	.	.	16a
.	.	.	16g
8G	.	.	16f#
.	.	.	16g
8G	.	.	16f#
.	.	.	16g
16BB	.	8g	8gg
16C	.	.	.
16C#	.	8g	8gg
16D	.	.	.
16D#	.	8g	8gg
16E	.	.	.
16F#	.	8g	8gg
16G	.	.	.
=11	=11	=11	=11
8C	16G	8f#	8ff#
.	16F#	.	.
8C	16G	8e	8ee
.	16F#	.	.
8C	16G	8e	8ee
.	16G#	.	.
8C	16A	8e	8ee
.	16G#	.	.
2C	4A	16e	16ee
.	.	16f#	16ff#
.	.	16g	16gg
.	.	16g#	16gg#
.	4r	16a	16aa
.	.	16b	16bb
.	.	16cc	16ccc
.	.	16a	16aa
=12	=12	=12	=12
4D	4.r	4g	4gg
8r	.	8r	8r
8D	8g	8b	8ddd
8D	8g	8b	8ddd
8D	8g	8b	8ddd
8D	8f#	8cc	16ddd
.	.	.	16ccc
8D	8f#	8cc	16bb
.	.	.	16aa
=13	=13	=13	=13
4G	4g	8b	4gg
.	.	8g	.
2.r	8r	8g	8r
.	8B	8g	8gg
.	16B	8g	8gg
.	16c	.	.
.	16c#	8g	8gg
.	16d	.	.
.	16d#	8g	8gg
.	16e	.	.
.	16f#	8g	8gg
.	16g	.	.
=14	=14	=14	=14
1r	8c	16g	8ff#
.	.	16f#	.
.	8c	16g	8ee
.	.	16f#	.
.	8c	16g	8ee
.	.	16g#	.
.	8c	16a	8ee
.	.	16g#	.
.	8c	4a	16ee
.	.	.	16ff#
.	8c	.	16gg
.	.	.	16gg#
.	8c	4r	16aa
.	.	.	16bb
.	8c	.	16ccc
.	.	.	16aa
=15	=15	=15	=15
4.r	4d	4b	4gg
.	8r	8r	8r
8D	8g	8b	8ddd
8D	8g	8b	8ddd
8D	8g	8b	8ddd
8D	8f#	8cc	16ddd
.	.	.	16ccc
8D	8f#	8cc	16bb
.	.	.	16aa
=16	=16	=16	=16
4G	4g	4b	4gg
8r	8r	8r	8r
8D	8d	8d	8d
8D	8d	8d	8d
8D	8d	8d	8d
16D	16d	16d	16d
16C	16c	16c	16c
16BB	16B	16B	16B
16AA	16A	16A	16A
=17	=17	=17	=17
8GG	2G	4G	2G
8GG	.	.	.
8GG	.	2.r	.
8GG	.	.	.
8GG	4F#	.	4A
8GG	.	.	.
8GG	4F	.	4B
8GG	.	.	.
=18	=18	=18	=18
8GG	2E	4r	4c
8GG	.	.	.
8GG	.	2c	2e
8GG	.	.	.
8GG	4F#	.	.
8GG	.	.	.
8GG	4G	4B	4d
8GG	.	.	.
=19	=19	=19	=19
8GG	2B	4B	2g
8GG	.	.	.
8GG	.	4g	.
8GG	.	.	.
8GG	4c	4f#	4a
8GG	.	.	.
8GG	4d	4f	4b
8GG	.	.	.
=20	=20	=20	=20
8GG	4e-	4e-	4cc
8GG	.	.	.
8GG	2f#	2cc	2ee-
8GG	.	.	.
8GG	.	.	.
8GG	.	.	.
8GG	4g	4b-	4dd
8GG	.	.	.
=21	=21	=21	=21
8AA	1e	1g	[2cc#
8AA	.	.	.
8AA	.	.	.
8AA	.	.	.
8AA	.	.	16cc#]
.	.	.	16dd
8AA	.	.	16cc#
.	.	.	16dd
8AA	.	.	16cc#
.	.	.	16dd
8AA	.	.	16ee
.	.	.	16cc#
=22	=22	=22	=22
8D	4d	4f#	4dd
8D	.	.	.
8A	16e	4g	16cc#
.	16d	.	16dd
8A	16c#	.	16ee
.	16e	.	16cc#
8d	8d	8f#	8dd
8d	8d	8f#	8dd
8A	16e	8g	16cc#
.	16d	.	16dd
8A	16c#	8g	16ee
.	16e	.	16cc#
=23	=23	=23	=23
4d	4d	4f#	8dd
.	.	.	8r
4d	4d	4f#	8dd
.	.	.	8r
4d	4d	4f#	8dd
.	.	.	4.r
4r	4r	4r	.
=24	=24	=24	=24
8G	8g	8b	2.gg
8G	8g	8b	.
8G	8g	8b	.
8G	8g	8b	.
8G	8g	8b	.
8G	8g	8b	.
8G	8g	8b	16ff#
.	.	.	16gg
8G	8g	8b	16bb
.	.	.	16gg
=25	=25	=25	=25
8G	8g	8b	8dd
8G	8g	8b	8dd
8G	8g	8b	8dd
8G	8g	8b	8dd
8G	8g	8b	8dd
8G	8g	8b	8dd
8G	8g	8b	8dd
8G	8g	8b	8dd
=26	=26	=26	=26
8AA	8e	8g	8cc#
8AA	8g	8cc#	8eee
8AA	8g	8cc#	[4eee
8AA	8g	8cc#	.
8AA	8g	8cc#	16eee]
.	.	.	16ccc#
8AA	8g	8cc#	16ddd
.	.	.	16bb
8AA	8g	8cc#	16ccc#
.	.	.	16aa
8AA	8e	8cc#	16bb
.	.	.	16gg
=27	=27	=27	=27
4D	4d	4dd	8ff#
.	.	.	8aa
2.r	8r	8r	8aa
.	8f#	8dd	8aa
.	16f#	16dd	[2aa
.	16a	16ff#	.
.	16g	16ee	.
.	16f#	16dd	.
.	16e	16cc#	.
.	16g	16ee	.
.	16f#	16dd	.
.	16e	16cc#	.
=28	=28	=28	=28
1r	4f#	4dd	16aa]
.	.	.	16bb
.	.	.	16ccc#
.	.	.	16ddd
.	8r	8r	8aa
.	8f#	8dd	8aa
.	16f#	16dd	[2aa
.	16a	16ff#	.
.	16g	16ee	.
.	16f#	16dd	.
.	16e	16cc#	.
.	16g	16ee	.
.	16f#	16dd	.
.	16e	16cc#	.
=29	=29	=29	=29
1r	4f#	4dd	16aa]
.	.	.	16bb
.	.	.	16ccc#
.	.	.	16ddd
.	8r	8r	8aa
.	8f#	8dd	8aa
.	16f#	16dd	[2aa
.	16a	16ff#	.
.	16g	16ee	.
.	16f#	16dd	.
.	16e	16cc#	.
.	16g	16ee	.
.	16f#	16dd	.
.	16e	16cc#	.
=30	=30	=30	=30
1r	16d	1b	8aa]
.	16e	.	.
.	16f	.	8gg#
.	16e	.	.
.	16d	.	8gg#
.	16e	.	.
.	16f	.	8gg#
.	16e	.	.
.	16d	.	8aa
.	16e	.	.
.	16f	.	8gg#
.	16e	.	.
.	16d	.	8gg#
.	16f	.	.
.	16e	.	8gg#
.	16d	.	.
=31	=31	=31	=31
1AA	16c#	16e	8b 8bb
.	16d	16f#	.
.	16e	16g	8a 8aa
.	16d	16f#	.
.	16c#	16e	8aa 8a
.	16d	16f#	.
.	16e	16g	8aa 8a
.	16d	16f#	.
.	16c#	16e	8bb 8b
.	16d	16f#	.
.	16e	16g	8aa 8a
.	16d	16f#	.
.	16c#	16e	8aa 8a
.	16e	16g	.
.	16d	16f#	8aa 8a
.	16c#	16e	.
=32	=32	=32	=32
4D	8d	8f#	16aa
.	.	.	16ff#
.	8r	8r	16ddd
.	.	.	16ccc#
2.r	8f#	8a	16ddd
.	.	.	16aa
.	8r	8r	16fff#
.	.	.	16eee
.	8a	8dd	16ddd
.	.	.	16ccc#
.	8r	8r	16bb
.	.	.	16aa
.	8dd	8ff#	16gg
.	.	.	16ff#
.	8r	8r	16ee
.	.	.	16dd
=33	=33	=33	=33
4A	8A	16cc#	4cc#
.	.	16a	.
.	8r	16ee	.
.	.	16dd	.
8r	8c#	16ee	2.r
.	.	16a	.
8A	8r	16gg	.
.	.	16ff#	.
8A	8e	16gg	.
.	.	16ff#	.
8A	8r	16ee	.
.	.	16dd	.
16A	8g	16cc#	.
16G	.	16b	.
16F#	8r	16a	.
16E	.	16g	.
=34	=34	=34	=34
4D	8d	8f#	16aa
.	.	.	16ff#
.	8r	8r	16ddd
.	.	.	16ccc#
2.r	8f#	8a	16ddd
.	.	.	16aa
.	8r	8r	16fff#
.	.	.	16eee
.	8a	8dd	16ddd
.	.	.	16ccc#
.	8r	8r	16bb
.	.	.	16aa
.	8dd	8ff#	16gg
.	.	.	16ff#
.	8r	8r	16ee
.	.	.	16dd
=35	=35	=35	=35
4A	8A	16cc#	4cc#
.	.	16a	.
.	8r	16ee	.
.	.	16dd	.
8r	8c#	16ee	2.r
.	.	16a	.
8AA	8r	16gg	.
.	.	16ff#	.
8AA	8e	16gg	.
.	.	16ff#	.
8AA	8r	16ee	.
.	.	16dd	.
16AA	8g	16cc#	.
16GG	.	16b	.
16FF#	8r	16a	.
16EE	.	16g	.
=36	=36	=36	=36
2DD	8d	8f#	16aa
.	.	.	16ff#
.	8r	8r	16ddd
.	.	.	16ccc#
.	8f#	8a	16ddd
.	.	.	16aa
.	8r	8r	16fff#
.	.	.	16eee
2F#	8a	8dd	16ddd
.	.	.	16ccc#
.	8r	8r	16bb
.	.	.	16aa
.	8d	8ff#	16gg
.	.	.	16ff#
.	8r	8r	16ee
.	.	.	16dd
=37	=37	=37	=37
8G	4G	2d	2cc#
8G	.	.	.
8G	2.r	.	.
8G	.	.	.
8G	.	4d#	4cc
8G	.	.	.
8G	.	4e	4b
8G	.	.	.
=38	=38	=38	=38
4A	4d	4f#	16a
.	.	.	16b-
.	.	.	16b
.	.	.	16cc
2.r	2.r	2.r	16cc#
.	.	.	16dd
.	.	.	16ee
.	.	.	16ff
.	.	.	16ff#
.	.	.	16gg
.	.	.	16gg#
.	.	.	16aa
.	.	.	16aa#
.	.	.	16bb
.	.	.	16gg
.	.	.	16ee
=39	=39	=39	=39
8A	2d	2f#	4..dd
8A	.	.	.
8A	.	.	.
8A	.	.	.
.	.	.	16a
8AA	2c#	2g	2ee
8AA	.	.	.
8AA	.	.	.
8AA	.	.	.
=40	=40	=40	=40
4D	4d	4f#	4dd
2.r	8r	8r	8r
.	8f#	8a	8dd
.	16e	16g	16cc#
.	16r	16r	16r
.	8d	8f#	8b
.	16c#	16e	16a
.	16r	16r	16r
.	8B	8d	8g#
=41	=41	=41	=41
4.r	4A	8.c#	8b
.	.	.	8a
.	.	2.r	.
.	8r	.	16a
.	.	.	16r
8B	8d	.	8g
16A	16c#	.	16f#
16r	16r	.	16r
8G	8B	.	8e
16F#	16A	.	16d
16r	16r	.	16r
8E	8G	.	8c#
.	.	16r	.
=42	=42	=42	=42
8D	4F#	2r	8e
4r	.	.	8d
.	2.r	.	16d
.	.	.	16r
8C#	.	.	8e
16E	.	4A	16g
16r	.	.	16r
8D	.	.	8f#
16F#	.	4r	16a
16r	.	.	16r
8E	.	.	8g
=43	=43	=43	=43
2GG 2G	2g	2d	4.b
.	.	.	8ee
2AA	4.e	2g	4.cc#
.	16d	.	16b
.	16e	.	16cc#
=44	=44	=44	=44
8D	4d	4f#	4dd
8D	.	.	.
8D	4r	8r	8r
8D	.	8dd	8aa
8D	2g	16cc#	8aa
.	.	16dd	.
8D	.	16cc#	8aa
.	.	16dd	.
8D	.	16cc#	16aa
.	.	16ee	16gg
8D	.	16dd	16ff#
.	.	16cc#	16ee
=45	=45	=45	=45
8D	4f#	4dd	4dd
8D	.	.	.
8D	4r	8r	8r
8D	.	8d	8a
8D	2G	16c#	8a
.	.	16d	.
8D	.	16c#	8a
.	.	16d	.
8D	.	16c#	16a
.	.	16e	16g
8D	.	16d	16f#
.	.	16c#	16e
=46	=46	=46	=46
8D	4F#	4d	4d
8D	.	.	.
8D	8r	8r	8r
8D	8A	8d	8f#
8D	8A	8d	8f#
8D	8A	8d	8f#
8D	16A	16d	16f#
.	16G	16e	16g
8D	16F#	16f#	16a
.	16E	16g	16b
=47	=47	=47	=47
4D	4D	4a	4.cc
2.r	2.r	2.r	.
.	.	.	8cc#
.	.	.	8dd
.	.	.	8dd#
.	.	.	8ee
.	.	.	8ff#
=48	=48	=48	=48
8GG	8B-	8b- 8d	2.gg
8G	8B-	8b- 8d	.
8G	8B-	8d 8b-	.
8G	8B-	8b- 8d	.
8G	8B-	8d 8b-	.
8G	8B-	8b- 8d	.
8G	8B-	8d 8b-	16ff#
.	.	.	16gg
8G	8B-	8b- 8d	16bb-
.	.	.	16gg
=49	=49	=49	=49
8G	8B-	8d 8b-	8dd
8G	8B-	8b- 8d	8dd
8G	8B-	8d 8b-	8dd
8G	8B-	8b- 8d	8dd
8G	8B-	8d 8b-	8dd
8G	8B-	8b- 8d	8dd
8G	8B-	8b- 8d	8dd
8G	8B-	8b- 8d	8dd
=50	=50	=50	=50
8F	8a-	8b- 8d	[2ddd
8F	8a-	8d 8b-	.
8F	8a-	8d 8b-	.
8F	8a-	8b- 8d	.
8F	8a-	8b- 8d	16ddd]
.	.	.	16ccc#
8F	8a-	8b- 8d	16ddd
.	.	.	16ccc#
8F	8a-	8d 8b-	16ddd
.	.	.	16bb-
8F	8a-	8b- 8d	16ccc
.	.	.	16ddd
=51	=51	=51	=51
8E-	4g	4b- 4e-	4eee-
8E-	.	.	.
8E-	8r	8r	8r
8E-	8g	8ee-	8bb-
8BB-	16f	16dd	8bb-
.	16g	16ee-	.
8BB-	16f	16dd	8bb-
.	16g	16ee-	.
8BB-	8f	16dd	16bb-
.	.	16ff	16aa-
8BB-	8a-	16ee-	16gg
.	.	16dd	16ff
=52	=52	=52	=52
8EE-	4g	4ee-	4ee-
8EE-	.	.	.
8EE-	8r	8r	8r
8EE-	8G	8e-	8b-
8BB-	16F	16d	8b-
.	16G	16e-	.
8BB-	16F	16d	8b-
.	16G	16e-	.
8BB-	8F	16d	16b-
.	.	16f	16a-
8BB-	8A-	16e-	16g
.	.	16d	16f
=53	=53	=53	=53
8E-	2G	2e-	2e-
8E-	.	.	.
8E-	.	.	.
8E-	.	.	.
8E-	4A-	4d	4f
8E-	.	.	.
8E-	4B-	4c#	4g
8E-	.	.	.
=54	=54	=54	=54
8E-	2c	4c	4a-
8E-	.	.	.
8E-	.	2g#	2cc
8E-	.	.	.
8E-	4d	.	.
8E-	.	.	.
8E-	4e-	4g	4b-
8E-	.	.	.
=55	=55	=55	=55
8e-	4E-	2ee-	2ee-
8e-	.	.	.
8e-	2.r	.	.
8e-	.	.	.
8e-	.	4dd	4ff
8e-	.	.	.
8e-	.	4dd-	4gg
8e-	.	.	.
=56	=56	=56	=56
8e-	1r	4cc	4aa-
8e-	.	.	.
8e-	.	2aa-	2ccc
8e-	.	.	.
8e	.	.	.
8e	.	.	.
8e	.	4gg	4bb-
8e	.	.	.
=57	=57	=57	=57
8f	4cc	4ee-	[1aa
8f	.	.	.
8f	2ee-	2gg-	.
8f	.	.	.
8f	.	.	.
8f	.	.	.
8f	4dd-	4ff	.
8f	.	.	.
=58	=58	=58	=58
8f#	4cc	4ee-	4aa]
8f#	.	.	.
8f#	2a	2ee-	2ccc
8f#	.	.	.
8f#	.	.	.
8f#	.	.	.
8f#	4b-	4dd	4bb-
8f#	.	.	.
=59	=59	=59	=59
4f#	4cc	4cc	4aa
2f#	2ee-	2cc	2aa
4g	4ee-	4cc	4gg
=60	=60	=60	=60
1a	2ee-	1cc	4..ff#
.	.	.	16gg
.	[2dd	.	16ff#
.	.	.	16gg
.	.	.	16ff#
.	.	.	16gg
.	.	.	16ff#
.	.	.	16gg
.	.	.	16aa
.	.	.	16ff#
=61	=61	=61	=61
8g	4dd]	4b-	4gg
8G	.	.	.
8G	8r	8r	8r
8G	8b-	8gg	8ddd
8D	16a	16ff#	8ddd
.	16b-	16gg	.
8D	16a	16ff#	8ddd
.	16b-	16gg	.
8D	8a	16ff#	16ddd
.	.	16aa	16ccc
8D	8dd	16gg	16bb-
.	.	16ff#	16aa
=62	=62	=62	=62
8G	4b-	4gg	4gg
8GG	.	.	.
8GG	8r	8r	8r
8GG	8B-	8g	8dd
8D	16A	16f#	8dd
.	16B-	16g	.
8D	16A	16f#	8dd
.	16B-	16g	.
8D	8A	16f#	16dd
.	.	16a	16cc
8D	8d	16g	16b-
.	.	16f#	16a
=63	=63	=63	=63
8G	2B-	4g	4g
8GG	.	.	.
8GG	.	2.r	8r
8GG	.	.	8d
8FF	2A	.	8d
8FF	.	.	8d
8FF	.	.	16d
.	.	.	16c
8FF	.	.	16B
.	.	.	16A
=64	=64	=64	=64
8EE	2B	4.r	2G#
8EE	.	.	.
8EE	.	.	.
8EE	.	8ff	.
8EE	2B 2d	8ff	2g#
8EE	.	8ff	.
8EE	.	16ee	.
.	.	16dd	.
8EE	.	16cc	.
.	.	16b	.
=65	=65	=65	=65
8EE	2c 2e	2cc	4.a
8EE	.	.	.
8EE	.	.	.
8EE	.	.	8cc
8EE	2A	2d#	8cc
8EE	.	.	8cc
8EE	.	.	16b
.	.	.	16a
8EE	.	.	16g#
.	.	.	16a
=66	=66	=66	=66
8EE	2G#	2e	2e
8EE	.	.	.
8EE	.	.	.
8EE	.	.	.
8EE	4A	4d#	4f#
8EE	.	.	.
8EE	4B	4d	4g#
8EE	.	.	.
=67	=67	=67	=67
8EE	4c	4c	4a
8EE	.	.	.
8EE	2d#	2a	2cc
8EE	.	.	.
8EE	.	.	.
8EE	.	.	.
8EE	4e	4g#	4b
8EE	.	.	.
=68	=68	=68	=68
8EE	2g#	2e	2ee
8EE	.	.	.
8EE	.	.	.
8EE	.	.	.
8EE	4a	4f#	4dd#
8EE	.	.	.
8EE	4b	4g#	4dd
8EE	.	.	.
=69	=69	=69	=69
4EE	4a	4a	4cc#
2.r	2d#	2a	2cc
.	4e	4g#	4b
=70	=70	=70	=70
1r	4r	4r	4r
.	2d#	2a	2cc
.	4e	4g#	4b
=71	=71	=71	=71
1r	4r	4r	4r
.	2a	2cc	2dd#
.	4g#	4b	4ee
=72	=72	=72	=72
1r	4r	4r	4r
.	2g	2b-	2cc#
.	4f#	4a	4dd
=73	=73	=73	=73
4r	4r	4r	4r
2GG	2f	2G 2f	2d 2b
4GG	4B	4G 4f	4dd
=74	=74	=74	=74
8C	8c	4G 4e	2.cc
8C	8e	.	.
8C	8e	2.r	.
8C	8e	.	.
8C	8e	.	.
8C	8e	.	.
8C	8e	.	16b
.	.	.	16cc
8C	8e	.	16ee
.	.	.	16cc
=75	=75	=75	=75
8C	8b 8d	2.ff	8g
8C	8b 8d	.	8g
8C	8b 8d	.	8g
8C	8b 8d	.	8g
8C	8b 8d	.	8g
8C	8b 8d	.	8g
8C	8b 8d	16ee	8g
.	.	16ff	.
8C	8b 8d	16aa	8g
.	.	16ff	.
=76	=76	=76	=76
8C	8cc 8e	8ee	2.gg
8C#	8e	8a	.
8C#	8e	8a	.
8C#	8e	8a	.
8C#	8e	8a	.
8C#	8e	8a	.
8C#	8e	8a	16ff#
.	.	.	16gg
8C#	8e	8a	16bb
.	.	.	16gg
=77	=77	=77	=77
8D	2.f#	2.a	8dd
8D	.	.	8dd
8D	.	.	8dd
8D	.	.	8dd
8D	.	.	8dd
8D	.	.	8dd
8D	16e	16g#	8dd
.	16f#	16a	.
8D	16g	16b	8dd
.	16f#	16a	.
=78	=78	=78	=78
8D#	[1b	1f#	2.aa
8D#	.	.	.
8D#	.	.	.
8D#	.	.	.
8D#	.	.	.
8D#	.	.	.
8D#	.	.	16gg#
.	.	.	16aa
8D#	.	.	16ccc
.	.	.	16aa
=79	=79	=79	=79
8E	4b]	2g	2gg
8E	.	.	.
8E	2g	.	.
8E	.	.	.
8C	.	2a#	4.ee
8C	.	.	.
8C	4e	.	.
8C	.	.	16dd#
.	.	.	16ee
=80	=80	=80	=80
4BB	4f#	8b	4dd#
.	.	8B	.
4.r	4.r	8B	8r
.	.	8B	8b
.	.	8B	8b
8E	8G	8B	8b
8E	8G	8B	16b
.	.	.	16a
8E	8G	8B	16g
.	.	.	16f#
=81	=81	=81	=81
16E	16G	16e	4e
16D	16F#	16f#	.
16C	16E	16g	.
16BB	16D	16g#	.
4AA	4C	16a	8r
.	.	16b	.
.	.	16cc	8ee
.	.	16b	.
8r	8r	4cc	8ee
8A	8c	.	8ee
8A	8c	8r	16ee
.	.	.	16dd
8A	8c	8e	16cc
.	.	.	16b
=82	=82	=82	=82
16A	16c	16a	4a
16G	16B	16b	.
16F#	16A	16cc	.
16E	16G	16cc#	.
4D	4F#	16dd	8r
.	.	16ee	.
.	.	16ff#	8aa
.	.	16gg	.
8r	8r	4ff#	8aa
8d	8f#	.	8aa
8d	8f#	4r	16aa
.	.	.	16gg
8d	8f#	.	16ff#
.	.	.	16ee
=83	=83	=83	=83
16d	16f#	2r	4dd
16c	16e	.	.
16B	16d	.	.
16A	16c	.	.
4G	4B	.	8r
.	.	.	8ddd
2r	8r	8r	8ddd
.	8g	8b	8ddd
.	8g	8b	16ddd
.	.	.	16ccc
.	8g	8b	16bb
.	.	.	16aa
=84	=84	=84	=84
1r	16g	16b	8gg
.	16f#	16a	.
.	16e	16g	8r
.	16d	16f#	.
.	8c	8e	16eee
.	.	.	16ddd
.	8r	8r	16ccc
.	.	.	16bb
.	16a	16cc	8aa
.	16g	16b	.
.	16f#	16a	8r
.	16e	16g	.
.	8d	8f#	16ccc
.	.	.	16bb
.	8r	8r	16aa
.	.	.	16gg
=85	=85	=85	=85
16D	16f#	16cc	8ff#
16E	16g	16b	.
16F#	16a	16a	8r
16G	16b	16g	.
8A	8cc	8f#	16ccc
.	.	.	16bb
8r	8r	8r	16aa
.	.	.	16gg
16D	16F#	16cc	8ff#
16E	16G	16b	.
16F#	16A	16a	8r
16G	16B	16g	.
8A	8c	8f#	16ccc
.	.	.	16bb
8r	8r	8r	16aa
.	.	.	16gg
=86	=86	=86	=86
1D	16a	16cc	[2ff#
.	16g#	16b	.
.	16a	16cc	.
.	16g#	16b	.
.	16a	16cc	.
.	16b	16dd	.
.	16cc	16ee	.
.	16b	16dd	.
.	2a	2cc	16ff#]
.	.	.	16gg
.	.	.	16ff#
.	.	.	16gg
.	.	.	16ff#
.	.	.	16gg
.	.	.	16aa
.	.	.	16ff#
=87	=87	=87	=87
8G	8B	8d 8b	2.gg
8G	8B	8d 8b	.
8G	8B	8b 8d	.
8G	8B	8b 8d	.
8G	8B	8d 8b	.
8G	8B	8b 8d	.
8G	8B	8b 8d	16ff#
.	.	.	16gg
8G	8B	8d 8b	16bb
.	.	.	16gg
=88	=88	=88	=88
8G	8B	8b 8d	8dd
8G	8B	8d 8b	8dd
8G	8B	8b 8d	8dd
8G	8B	8b 8d	8dd
8G	8B	8d 8b	8dd
8G	8B	8b 8d	8dd
8G	8B	8b 8d	8dd
8G	8B	8b 8d	8dd
=89	=89	=89	=89
8F#	1A	1d 1cc	[2ddd
8F#	.	.	.
8F#	.	.	.
8F#	.	.	.
8F#	.	.	16ddd]
.	.	.	16ccc#
8F#	.	.	16ddd
.	.	.	16ccc#
8F#	.	.	16ddd
.	.	.	16bb
8F#	.	.	16ccc
.	.	.	16aa
=90	=90	=90	=90
4G	8B	4d 4b	4gg
.	8g	.	.
8r	8g	2.r	8r
8B	8g	.	8g
8c	8g	.	8a-
8c#	8g	.	8a
8d	8g	.	8b-
8d#	8g	.	8b
=91	=91	=91	=91
8e	8g	2r	16cc
.	.	.	16dd
8e	8g	.	16cc
.	.	.	16b
8e	8g	.	16cc
.	.	.	16ee
8e	8g	.	16dd
.	.	.	16cc
8d	8g	8r	4b
8d	8g	16ff#	.
.	.	16gg	.
8d	8g	16ff#	4r
.	.	16gg	.
8d	8g	16ff#	.
.	.	16gg	.
=92	=92	=92	=92
8c	8g	2r	16a
.	.	.	16g#
8c	8g	.	16a
.	.	.	16g#
8c	8g	.	16a
.	.	.	16cc
8c	8g	.	16b
.	.	.	16a
8B	8g	8r	4g
8B	8g	16c#	.
.	.	16d	.
8B	8g	16c#	4r
.	.	16d	.
8B	8g	16c#	.
.	.	16d	.
=93	=93	=93	=93
8F#	[1d	1c	[2a
8F#	.	.	.
8F#	.	.	.
8F#	.	.	.
8F#	.	.	16a]
.	.	.	16b-
8F#	.	.	16b
.	.	.	16cc
8F#	.	.	16cc#
.	.	.	16dd
8F#	.	.	16ee
.	.	.	16dd
=94	=94	=94	=94
8G	1d_	2B	16cc
.	.	.	16b
8G	.	.	16a
.	.	.	16g
8G	.	.	16f#
.	.	.	16g
8G	.	.	16a
.	.	.	16g
8F#	.	2c	16a
.	.	.	16b-
8F#	.	.	16b
.	.	.	16cc
8F#	.	.	16cc#
.	.	.	16dd
8F#	.	.	16ee
.	.	.	16dd
=95	=95	=95	=95
8G	2.d]	2B	16cc
.	.	.	16b
8G	.	.	16a
.	.	.	16g
8G	.	.	16f#
.	.	.	16g
8G	.	.	16f#
.	.	.	16g
8F	.	[2g	16b
.	.	.	16cc
8F	.	.	16dd
.	.	.	16ee
8F	4B	.	16ff
.	.	.	16gg
8F	.	.	16aa
.	.	.	16gg
=96	=96	=96	=96
8E	2c	1g]	16ff
.	.	.	16ee
8E	.	.	16dd
.	.	.	16cc
8E	.	.	16b
.	.	.	16cc
8E	.	.	16b
.	.	.	16cc
8AA	4e	.	16cc#
.	.	.	16dd
8AA	.	.	16ee
.	.	.	16ff#
8AA	4c#	.	16gg
.	.	.	16aa
8AA	.	.	16bb
.	.	.	16aa
=97	=97	=97	=97
2D	4d	4f#	16gg
.	.	.	16ff#
.	.	.	16ee
.	.	.	16dd
.	4r	4r	16cc#
.	.	.	16dd
.	.	.	16cc#
.	.	.	16dd
2r	16d	16f#	8ccc
.	16e	16g	.
.	16f#	16a	8r
.	16g	16b	.
.	16a	16cc	8aa
.	16b	16dd	.
.	16cc	16ee	8r
.	16b	16dd	.
=98	=98	=98	=98
16D	16a	16cc	16ff#
16E	16g	16b	16gg
16F#	16f#	16a	16aa
16G	16e	16g	16bb
16A	8d	8f#	16ccc
16B	.	.	16ddd
16c	8r	8r	16eee
16B	.	.	16ddd
16A	16d	16f#	16ccc
16G	16e	16g	16bb
16F#	16f#	16a	16aa
16E	16g	16b	16gg
8D	16a	16cc	8ff#
.	16b	16dd	.
8r	16cc	16ee	8r
.	16b	16dd	.
=99	=99	=99	=99
16D	16a	16cc	16ff#
16E	16g	16b	16gg
16F#	16f#	16a	16aa
16G	16e	16g	16bb
16A	8d	8f#	16ccc
16B	.	.	16ddd
16c	8r	8r	16eee
16B	.	.	16ddd
16A	16d	16f#	16ccc
16G	16e	16g	16bb
16F#	16f#	16a	16aa
16E	16g	16b	16gg
8D	16a	16cc	8ff#
.	16b	16dd	.
8r	16cc	16ee	8r
.	16b	16dd	.
=100	=100	=100	=100
16D	16a	16cc	16f#
16E	16g	16b	16g
16F#	16f#	16a	16a
16G	16e	16g	16b
16A	8d	8f#	16cc
16B	.	.	16dd
16c	8r	2r	16ee
16B	.	.	16dd
16A	4D	.	16cc
16G	.	.	16b
16F#	.	.	16a
16E	.	.	16g
16D	4F#	.	16f#
16C	.	.	16e
16BB	.	8r	16d
16AA	.	.	16c
=101	=101	=101	=101
16GG	4G	1G	2.B-
16AA	.	.	.
16BB-	.	.	.
16C	.	.	.
16D	2.r	.	.
16E-	.	.	.
16D	.	.	.
16C	.	.	.
16D	.	.	.
16C	.	.	.
16BB-	.	.	.
16AA	.	.	.
16GG	.	.	8c
16FF	.	.	.
16EE-	.	.	8d
16DD	.	.	.
=102	=102	=102	=102
2CC	16G	1B-	2e-
.	16F#	.	.
.	16G	.	.
.	16F#	.	.
.	16G	.	.
.	16A	.	.
.	16B-	.	.
.	16A	.	.
2CC#	16G	.	2e
.	16F#	.	.
.	16G	.	.
.	16F#	.	.
.	16G	.	.
.	16B-	.	.
.	16A	.	.
.	16G	.	.
=103	=103	=103	=103
8DD	4F#	4A	16d
.	.	.	16A
8r	.	.	16f#
.	.	.	16e
8D	2.r	8r	16f#
.	.	.	16d
8r	.	16f#	16a
.	.	16e	16g
8D	.	16f#	16a
.	.	16d	16d
8r	.	16a	16cc
.	.	16g	16b
8D	.	16a	16cc
.	.	16f#	16a
8r	.	16a	16ff#
.	.	16b	16gg
=104	=104	=104	=104
8D	2r	16cc	16ff#
.	.	16a	16dd
8r	.	16cc	16aa
.	.	16b	16gg
8D	.	16cc	16aa
.	.	16a	16ff#
8r	.	16aa	16ccc
.	.	16gg	16bb
2D	2F#	16aa	16ccc
.	.	16gg	16bb
.	.	16ff#	16aa
.	.	16ee	16gg
.	.	16dd	16ff#
.	.	16cc	16ee
.	.	16b	16dd
.	.	16a	16cc
=105	=105	=105	=105
4G	4G	4g	16b
.	.	.	16dd
.	.	.	16cc#
.	.	.	16dd
4r	4r	4r	16cc#
.	.	.	16dd
.	.	.	16cc#
.	.	.	16dd
4C	4c	4g	16dd#
.	.	.	16ee
.	.	.	16dd#
.	.	.	16ee
4r	4r	4r	16dd
.	.	.	16b
.	.	.	16cc
.	.	.	16a
=106	=106	=106	=106
8D	2d	4..B	4..g
8D	.	.	.
8D	.	.	.
8D	.	.	.
.	.	16g	16d
8D	2c	2f#	2a
8D	.	.	.
8D	.	.	.
8D	.	.	.
=107	=107	=107	=107
4GG	4B	4g	4g
2.r	8r	8r	8r
.	8b	8dd	8gg
.	16a	16cc	16ff#
.	16r	16r	16r
.	8g	8b	8ee
.	16f#	16a	16dd
.	16r	16r	16r
.	8e	8g	8cc#
=108	=108	=108	=108
4.r	8d	4f#	8ee
.	4r	.	8dd
.	.	2.r	16dd
.	.	.	16r
8e	8g	.	8cc
16d	16f#	.	16b
16r	16r	.	16r
8c	8e	.	8a
16B	16d	.	16g
16r	16r	.	16r
8A	8c	.	8f#
=109	=109	=109	=109
4G	4B	4.r	8a
.	.	.	8g
2.r	2.r	.	16g
.	.	.	16r
.	.	8f#	8a
.	.	16a	16cc
.	.	16r	16r
.	.	8g	8b
.	.	16b	16dd
.	.	16r	16r
.	.	8a	8cc
=110	=110	=110	=110
2C	2g	2cc	4..ee
.	.	.	16aa
2D	4..cc	4..a	4..ff#
.	32b	32g	32ee
.	32cc	32a	32ff#
=111	=111	=111	=111
4G	4b	4b	4gg
2.r	8r	8r	4.r
.	8b	8gg	.
.	16a	16ff#	.
.	16r	16r	.
.	8g	8ee	8aa
.	16f#	16dd	8aa
.	16r	16r	.
.	8e	8cc#	8aa
=112	=112	=112	=112
4.r	4d	8ee	16aa
.	.	.	16gg
.	.	8dd	16ff#
.	.	.	16ee
.	8r	16dd	8dd
.	.	16r	.
8e	8g	8cc	4r
16d	16f#	16b	.
16r	16r	16r	.
8c	8e	8a	8dd
16B	16d	16g	8dd
16r	16r	16r	.
8A	8c	8f#	8dd
=113	=113	=113	=113
4G	4B	8a	16dd
.	.	.	16cc
.	.	8g	16b
.	.	.	16a
8r	2.r	8g	8g
8F#	.	2r	8a
16A	.	.	16cc
16r	.	.	16r
8G	.	.	8b
16B	.	.	16dd
8.r	.	.	16r
.	.	8a	8cc
=114	=114	=114	=114
2..r	4.r	16cc	16ee
.	.	16r	16r
.	.	8b	8dd
.	.	16dd	16ff
.	.	2r	16r
.	8b	.	8dd#
.	16cc	.	16ee
.	16r	.	16r
.	8a	.	8ff#
.	16b	.	16gg
.	16r	16r	16r
8d	8cc	8ff#	8aa
=115	=115	=115	=115
2d#	2f#	2aa	2ccc
2e	2g	8gg	2bb
.	.	8g	.
.	.	8g	.
.	.	8g	.
=116	=116	=116	=116
8c	8e	4.g	16aa
.	.	.	16gg#
8c	8e	.	16aa
.	.	.	16gg#
8c	8e	.	16aa
.	.	.	16bb
8c	8e	8g#	16ccc
.	.	.	16bb
8c	8e	16a	8aa
.	.	16g#	.
8c	8e	16a	4.r
.	.	16g#	.
8c	8e	16a	.
.	.	16b	.
8c	8e	16cc	.
.	.	16b	.
=117	=117	=117	=117
8c	8d	8a	16aa
.	.	.	16gg#
8c	8d	8f#	16aa
.	.	.	16gg#
8c	8d	8f#	16aa
.	.	.	16bb
8c	8d	8f#	16ccc
.	.	.	16bb
8c	8d	16f#	8aa
.	.	16g	.
8c	8d	16a	8ddd
.	.	16b	.
8c	16f#	16cc	8ddd
.	16f#	16dd	.
8c	16g	16ee	8ddd
.	16a	16ff#	.
=118	=118	=118	=118
16B	4g	16gg	[1ddd
16A#	.	16ff#	.
16B	.	16gg	.
16A#	.	16ff#	.
16B	2.r	16gg	.
16d	.	16bb	.
16c	.	16aa	.
16B	.	16gg	.
16A	.	16ff#	.
16G#	.	16ee#	.
16A	.	16ff#	.
16G#	.	16ee#	.
16A	.	16ff#	.
16c	.	16aa	.
16B	.	16gg	.
16A	.	16ff#	.
=119	=119	=119	=119
16G	2r	16ee	2ddd_
16F#	.	16dd#	.
16G	.	16ee	.
16F#	.	16dd#	.
16G	.	16ee	.
16B	.	16gg	.
16A	.	16ff#	.
16G	.	16ee	.
2F#	2a	[2dd	16ddd]
.	.	.	16ccc#
.	.	.	16ddd
.	.	.	16ccc#
.	.	.	16ddd
.	.	.	16eee
.	.	.	16ddd
.	.	.	16ccc
=120	=120	=120	=120
4G	4b	4dd]	4bb
8r	8r	8r	8r
8G	8b	8gg	8bb
16E	16g	16g	16ccc
16r	16r	16r	16r
8D	8b	8gg	8bb
16C	16cc	16g	16eee
16r	16r	16r	16r
8BB-	8d	8gg	8ddd
=121	=121	=121	=121
4AA	4e	4g	4ccc#
4r	4r	4r	4r
4D	4A	4ff#	4ccc
4r	4r	4r	4r
=122	=122	=122	=122
4r	4r	4r	4r
2e	2g	2b	2bb
4d#	4f#	4a	4aa
=123	=123	=123	=123
2d	2a	2ff#	2ccc
2e	2g	2gg	2bb
=124	=124	=124	=124
4r	4r	4r	4r
2c	2e	2cc	2aa
8B	8d	8dd	8bb
8A	8c	8ee	8ccc
=125	=125	=125	=125
4d	4d	4b	4gg
4r	4r	4r	4r
4D	4f#	4cc	4aa
4r	4r	4r	4r
=126	=126	=126	=126
8E	8a	8cc#	2.gg
8E	8a	8cc#	.
8E	8a	8cc#	.
8E	8a	8cc#	.
8E	8a	8cc#	.
8E	8a	8cc#	.
8E	8a	8cc#	16ff#
.	.	.	16gg
8E	8a	8cc#	16bb
.	.	.	16gg
=127	=127	=127	=127
4D	2.g	2.b	8dd
.	.	.	8dd
2.r	.	.	8dd
.	.	.	8dd
.	.	.	8dd
.	.	.	8dd
.	16f#	16a	8dd
.	16g	16b	.
.	16a	16cc	8dd
.	16g	16b	.
=128	=128	=128	=128
8DD	1c	1f# 1a	[2ddd
8DD	.	.	.
8DD	.	.	.
8DD	.	.	.
8DD	.	.	16ddd]
.	.	.	16ccc#
8DD	.	.	16ddd
.	.	.	16ccc#
8DD	.	.	16ddd
.	.	.	16bb
8DD	.	.	16ccc
.	.	.	16aa
=129	=129	=129	=129
8GG	4B	4g 4b	4gg
8GG	.	.	.
8GG	4r	8r	8r
8GG	.	8g	8dd
8GG	2c	16f#	8dd
.	.	16g	.
8GG	.	16f#	8dd
.	.	16g	.
8GG	.	16f#	16dd
.	.	16a	16cc
8GG	.	16g	16b
.	.	16f#	16a
=130	=130	=130	=130
8GG	4B	4g	4g
8GG	.	.	.
8GG	8r	8r	4r
8GG	8d	8g	.
8GG	8d	16f#	4ff# 4a 4d
.	.	16g	.
8GG	8d	16f#	.
.	.	16g	.
8GG	16d	16f#	4r
.	16c	16a	.
8GG	16B	16b	.
.	16A	16cc	.
=131	=131	=131	=131
4GG	4G	4b	4gg 4b 4d
2.r	2.r	2.r	2.r
==	==	==	==
*-	*-	*-	*-
!!!RWG1: This file contains only pitch and duration data.
!!!RWG2: Transposing instruments are not transposed.
!!!RWG3: Spines may have incompatible meters.
!!!RWG4: Durations of rests and tied notes may be interpreted.
!!!RWG: Key is interpreted using the Humdrum key tool.
!!!GTL: 6 Quators ("Tost I + II")
!!!AFT: stage1
!!!END: 1997/04/15
!!!KEY: 548130718
!!!EMD: Converted from MuseData to Humdrum Dec 16, 2000, by Andreas Kornstaedt using muse2kern.
!!!EMD: Manual editing by Craig Sapp, Nov 2001
